X: 1
T: Eileen's Lament
T: Caoineadh Eignlin
C: Michael Roone
S: from an F viola version by Chris Stout
R: air, slip-jig
Z: 2019 John Chambers <jc:trillian.mit.edu>
M: 9/8
L: 1/8
K: Bb
FGA |\
B3 D3 CDE | F3 B,3 CDF | E3 D3 CDB, | C6 FGA |\
B3 D3 CDE | F3 B,3 CDE | C3 B,3 B,2A, | B,6 :|
|: CDF |\
G3 c3 GFE | F3 B3 CDF | E3 D3 CDB, | C6 FGA |\
B3 D3 CDE | F3 B,3 CDE | C3 B,3 B,2A, | B,6 :|
